proprietary/assets/icons/functioneel/inloggen.svg

<svg height="48" width="48" xmlns="http://www.w3.org/2000/svg"><path d="m41 2h-30c-1.602 0-3 1.398-3 3v9h6v-6h24v30h-24v-6h-6v9c0 1.602 1.398 3 3 3h30c1.602 0 3-1.398 3-3v-36c0-1.602-1.398-3-3-3zm-22 28.801a2.14 2.14 0 0 0 .199 2.801 2.15 2.15 0 0 0 2.801.199l11.398-9.199c1-.801 1.203-2.203 0-3.203l-11.398-9.2a2.15 2.15 0 0 0 -2.801.199 2.14 2.14 0 0 0 -.199 2.801l4.199 4.801h-17.597c-2 0-2.402 1.398-2.402 3 0 1.398.402 3 2.402 3h17.398zm0 0"/></svg>

<svg xmlns="http://www.w3.org/2000/svg" width="48" height="48" fill="rgb(0%,0%,0%)" xmlns:v="https://vecta.io/nano"><path d="M41 2H11C9.398 2 8 3.398 8 5v9h6V8h24v30H14v-6H8v9c0 1.602 1.398 3 3 3h30c1.602 0 3-1.398 3-3V5c0-1.602-1.398-3-3-3zM19 30.801a2.14 2.14 0 0 0 .199 2.801 2.15 2.15 0 0 0 2.801.199l11.398-9.199c1-.801 1.203-2.203 0-3.203L22 12.199a2.15 2.15 0 0 0-2.801.199A2.14 2.14 0 0 0 19 15.199L23.199 20H5.602c-2 0-2.402 1.398-2.402 3 0 1.398.402 3 2.402 3H23zm0 0"/></svg>
